X:1
T:Amour un iour me voyant
T:Antoine Cartier
T:Source : Livre XI de 22 chansons nouvelles à 4 parties---Paris---N.du Chemin---1554. Editor : André Vierendeels (20/04/18) Notes : Original clefs : C1, C3, C4, F4 Original note values have been halved Editorial accidentals above the staff
T:Amour un iour me voyant
T:©
T:©
T:©
T:©
T:©
C:Antoine Cartier
Z:©
%%score [ 1 [ 2 3 ] 4 ]
L:1/8
Q:1/4=120
M:2/2
K:F
V:1 treble nm="Alto" snm="A"
V:2 treble-8 nm="Tenor 1" snm="T 1"
V:3 treble-8 nm="Tenor 2" snm="T 2"
V:4 bass nm="Bass" snm="B"
V:1
 z8 | F8 | E4 F4 | G2 B2 A2 G2- | G2 F4 ED | E4 F4 | G8 | z2 C2 C2 C2 | F2 F2 G2 G2 | A2 A2 G2 c2 | %10
w: |A-|mour un|iour, me voy- ant|_ lan- * *|* gou-|reux,|pour le tour-|ment qu'u- ne me|pre- sen- toit, qu'u-|
w: |Me|dit: a-|my, ton mal trop|_ ri- * *|* gou-|reux,|n'est plus si|grand com- me de-|vant e- stoit, com-|
 B2 A2 G2 F2- |1 F2 E2 F4 :|2 F2 E2 F4 || z2 F2 E2 E2 | A3 G FE D2- | D2 D2 F2 E2 | F4 G4 | %17
w: ne me pre- sen-|* * toit,||sçais tu pour-|quoy _ _ _ _|_ car ce qui|te ten-|
w: me de- vant e-||(e)- * stoit,|||||
 G2 c2 B2 B2 | A4 G4 | F2 E2 D2 D2 | C8 | C8 | z4 z2 C2 | CDEF G2 G2 | C2 F2 A2 G2 | %25
w: toit, ie l'ay trans-|mis à|ta da- me cru-|el-|le,|et|le _ _ _ _ plai-|sir que pour ton|
w: ||||||||
 FEED/C/ D2 D2 | E4 z4 | z2 C2 F2 G2 | A2 c2 B3 A | G2 F2 EDEF | G2 F4 E2 | F4 z2 C2 | %32
w: mal _ _ _ _ _ sen-|toit,|ie t'ay don-|né pour la cru-|aul- té d'el- * * *||le, ie|
w: |||||||
 F2 G2 A2 c2 | B3 A G2 F2 | EDEF G2 F2- | F2 E2 F4- | F8 |] %37
w: t'ay don- né pour|la cru- aul- té|d'el- * * * * *|* * le.|_|
w: |||||
V:2
 z4 c4- | c4 d2 d2 | cBAG F2 c2- | c2 f4 e2 | d2 A2 c3 c | c2 c2 d2 f2- | f2 ed e4- | e4 z2 A2 | %8
w: A-|* mour un|iour _ _ _ _ me|_ voy- ant|lan- gou reux, me|voy- ant lan- gou-|* * * reux,|_ pour|
w: Me|_ dit: a-|my, _ _ _ _ ton|_ mal trop|ri- gou- reux, ton|mal trop ri- gou-|* * * reux,|_ n'est|
 A2 A2 c2 d2 | cBcd e2 g2 | f2 e2 d2 d2 |1 c8 :|2 c2 c2 A2 B2 || c3 c c2 c2 | f3 e dc B2- | %15
w: le tou- ment qu'u-|ne, _ _ _ _ qu'u-|ne me pre- sen-|toit,|stoit, sçais tu pour-|quoy, sçais tu pour-|quoy _ _ _ _|
w: plus si grand com-|me, _ _ _ _ com-|me de- vant e|_||||
 B2 AG A2 c2 | c2 c2 d2 d2 |"^b" e2 g4 f2- | f2 f2 e2 e2 | d3 c B2 A2 | G2 F4 E2 | F4 z2 F2 | %22
w: _ _ _ _ car|ce qui te ten-|toit, ie l'ay|_ mis à ta|da- me cru- el-||le, et|
w: |||||||
 FGAB c2 A2 | G2 c2 c2 B2 | AGAB c2 GA | BG c4 B2 | c2 A2 B2 c2 | c3 c d2 e2 | f2 c2 d3 d | %29
w: le _ _ _ _ plai-|sir que pour ton|mal _ _ _ _ sen- *||toit, ie t'ay don-|né, ie t'ay don-|né pour la cru-|
w: |||||||
 d2 B2 c4 | c4 z2 c2 | A2 d2 cBAG | F2 e2 f2 f2 | f3 e d2 c2 | c4 d2 B2 | c4 c4- | c8 |] %37
w: aul- té d'el-|le, ie|t'ay don- né, _ _ _|_ ie t'ay don-|né pour la cru-|aul- té d'el-|* le.|_|
w: ||||||||
V:3
 F8 | A4 B4 | G2 c2 B2 A2 | G2 F2 c2 C2 | F2 F2 G2 A2 | G2 A4 GF | c2 G2 G2 G2 | c3 B AG F2- | %8
w: A-|mour un|iour, me voy- ant|lan- gou- reux, me|voy- ant lan- gou-||reux, pour le tour-|ment _ _ _ _|
w: Me|dit: a-|my, ton mal trop|ri- gou- reux, ton|mal trop ri- gou-||reux, n'est plus si|grand, _ _ _ _|
 F2 ED E2 D2 | E2 F2 G4 | z2 c2 B3 A |1 G2 G2 F4 :|2 G2 G2 F4 || z2 A2 G2 G2 | c3 B AG F2- | %15
w: _ _ _ _ pour|le tour- ment|qu'u- ne me|pre- sen- toit,||sçais tu pour-|quoy, _ _ _ _|
w: _ _ _ _ n'est|plus si grand|com- me de-||vant e- stoit,|||
 F2 F2 F2 G2 | A2 c4 B2 | c4 z2 d2 | c2 c2 c4 | A4 F2 D2 | E2 F2 G4 | A2 F2 FGAB | c2 c2 A3 G/F/ | %23
w: _ car ce qui|te ten- *|toit, ie|l'ay trans- mis|à ta da-|me cru- el-|le, et le _ _ _|_ plai- sir, _ _|
w: ||||||||
 E2 C2 D2 E2 | F2 F2 F2 E2 | D2 C2 G4 | z2 E2 F2 G2 | A2 F4 c2- | cBAG F2 F2 | BAAG/F/ G3 F | %30
w: _ et le plai-|sir que pour ton|mal sen- toit,|ie t'ay don-|né pour la|_ _ _ _ _ cru-|aul- * * * * * *|
w: |||||||
 E2 A2 G4 | F2 F2 A4 | A2 c4 A2 | d3 c B2 A2 | GFGA BAGF | G4 F4- | F8 |] %37
w: té d'el- *|le, pour la|cru- aul- té|d'el- * * *||* le.|_|
w: |||||||
V:4
 z4 F,4- | F,4 B,,4 | C,4 D,2 F,2 | E,2 D,2 C,3 B,,/A,,/ | D,2 D,2 C,2 C,2 | C,2 A,,2 D,2 D,2 | %6
w: A-|* mour|un iour, me|voy- ant lan- * *|* gou- reux, me|voy- ant lan- gou-|
w: Me|_ dit:|a- my, ton|mal trop ri- * *|* gou- reux, ton|mal trop ri- gou-|
 C,4 z2 C,2 | C,2 C,2 F,3 E, | D,2 D,2 C,2 B,,2 | A,,2 F,,2 C,3 B,,/C,/ | D,2 A,,2 B,,4 |1 %11
w: reux, pour|le tour- ment qu'u-|ne me pre- sen-|toit, qu'u- ne _ _|_ me pre-|
w: reux, n'est|plus si grand com-|me de- vant e-|stoit, com- me _ _|_ de- vant|
 C,4 F,,4 :|2 C,4 F,,2 B,,2 || A,,2 F,,2 C,3 B,, | A,,G,, F,,4 B,,2- | B,,2 D,4 C,2 | F,2 A,2 G,4 | %17
w: sen- toit,|e- stoit, sçais|tu pou- quoy, _|_ _ _ car|_ ce qui|te ten- toit,|
w: _ _||||||
 z2 C,2 _E,2 B,,2 | F,2 F,,2 C,2 C,2 | D,2 A,,2 B,,4 | C,8 | F,,8 | z2 F,,2 F,,G,,A,,B,, | %23
w: ie l'ay trans-|mis à ta da-|me cru- el-||le,|et le _ _ _|
w: ||||||
 C,2 A,,2 G,,4 | F,,4 z4 | z4 z2 G,,2 | C,2 C,2 D,2 E,2 | F,3 E, D,2 C,2 | F,3 E, D,C, B,,2- | %29
w: _ plai- *|sir,|ie|t'ay don- né pour|la cru- aul- té|d'el- * * * *|
w: ||||||
 B,,2 D,2 C,4 | z2 A,,2 B,,2 C,2 | D,2 B,,2 F,3 E, | D,2 C,2 F,4 | B,,4 z2 F,,2 | %34
w: * * le,|pour la cru-|aul- té d'el- *||le, pour|
w: |||||
 C,2 C,2 B,,2 D,2 | C,4 F,,4- | F,,8 |] %37
w: la cru- aul- té|d'el- le.|_|
w: |||

